X:23
T:Anglais ur Vetlandasamlingen
T:(M39-23)
R:Anglais
R:Engelska
O:Vetlanda, Småland
B:Vetlandasamlingen
N:SMUS M39
N:ca 1850
Z:Till abc Jonas Brunskog
M:2/4
L:1/16
K:G
e>fe>d c2G2|g>ag>f e2G2|e>fe>d c2G2|B>df>B c4:|
|:B>dc>e d2g2|abc'b gbgd|B>dc>e d2g2|abc'a g4:|

